img/Fireart.svg

<svg width="128" height="67" viewBox="0 0 128 67" fill="none" xmlns="http://www.w3.org/2000/svg">
<path fill-rule="evenodd" clip-rule="evenodd" d="M10.5545 0V3.33657V4.73248V5.14104C10.5545 6.77528 8.85216 7.62645 7.83076 7.62645V6.33268V3.23443C7.83076 0.783073 9.53309 0 10.5545 0ZM0 13.1419V8.20511C1.0214 8.20511 2.72373 9.02223 2.72373 11.4395V16.138V19.066C1.70233 19.066 0 18.2148 0 16.5806V16.138V13.1419ZM27.5778 22.1636H40.5836C41.3326 22.1636 41.9795 22.2657 42.2859 22.6062C42.6264 22.9466 42.8647 23.4233 42.8647 24.1723V27.611H39.1196V26.2492C39.1196 26.0433 39.0179 25.9136 38.9244 25.7943C38.9097 25.7755 38.8951 25.757 38.8812 25.7385C38.7791 25.6023 38.5408 25.5682 38.3025 25.5682H34.0466V32.0371H41.1964V35.4418H34.0466V44.6344H29.961V25.5682H27.5778V22.1636ZM49.7082 22.1646H46.3035V25.5692H49.7082V22.1646ZM50.2528 41.0259C50.1506 40.8897 50.0485 40.6855 50.0485 40.4812V30.5055C50.0485 29.7565 49.9123 29.1777 49.5718 28.8372C49.2314 28.4968 48.7207 28.2925 47.9716 28.2925H44.2606V31.6971H45.4181C45.5965 31.6971 45.697 31.775 45.8102 31.8627C45.8267 31.8755 45.8435 31.8884 45.8608 31.9014C45.9629 32.0036 45.9629 32.2419 45.9629 32.4802V42.3878C45.9629 43.1368 46.2012 43.7497 46.5417 44.0901C46.8822 44.4306 47.495 44.6349 48.244 44.6349H52.0913V41.2302H50.7975C50.5932 41.2302 50.389 41.1281 50.2528 41.0259ZM77.6263 28.565C78.5115 28.9735 79.2605 29.5183 79.8734 30.1992C80.4862 30.9142 80.9288 31.7313 81.2693 32.7187C81.5757 33.6379 81.7459 34.6253 81.7459 35.7148V36.1574C81.7459 36.2216 81.7384 36.2934 81.7304 36.3692L81.7303 36.3694V36.3695L81.7303 36.3696C81.7214 36.4544 81.7119 36.5442 81.7119 36.634C81.7119 36.73 81.7011 36.8151 81.6917 36.8894C81.6843 36.9469 81.6778 36.998 81.6778 37.0426C81.6438 37.1447 81.6438 37.2128 81.6438 37.2128H70.4765C70.5446 37.8938 70.7489 38.5407 71.0212 39.0854C71.3277 39.6301 71.6681 40.0728 72.1107 40.4473C72.5534 40.7877 73.064 41.0942 73.6088 41.2644C74.1535 41.4346 74.7323 41.5368 75.3452 41.5368C75.8559 41.5027 76.3666 41.4687 76.8092 41.3325C77.2858 41.2303 77.6944 41.0601 78.0689 40.8899C78.3909 40.7435 78.6626 40.572 78.9055 40.4186L78.9056 40.4185L78.9062 40.4182C78.9456 40.3933 78.9842 40.3689 79.0222 40.3451C79.2333 40.2132 79.4035 40.0812 79.5329 39.981L79.5333 39.9807L79.5887 39.9378C79.6049 39.9253 79.6204 39.9135 79.6351 39.9025C79.8053 39.7663 79.8734 39.6982 79.8734 39.6982L81.5417 42.4901C81.5417 42.4901 81.4395 42.5582 81.2353 42.7284C81.031 42.8986 80.7586 43.1029 80.3841 43.3412C80.0096 43.5796 79.5329 43.8179 79.0222 44.0562C78.4775 44.2945 77.8987 44.4988 77.2177 44.6691C76.5709 44.8052 75.8218 44.9074 75.0047 44.9074C73.6769 44.9074 72.4853 44.6691 71.3958 44.2264C70.3403 43.7838 69.4211 43.171 68.672 42.3879C67.923 41.6049 67.3442 40.7196 66.9357 39.6982C66.5271 38.6768 66.3228 37.5874 66.3228 36.4298C66.3228 35.17 66.5271 34.0125 66.9357 32.9911C67.3442 31.9356 67.923 31.0504 68.638 30.3014C69.353 29.5523 70.2041 28.9735 71.2255 28.565C72.2469 28.1564 73.3364 27.9521 74.5621 27.9521C75.7197 27.9862 76.7411 28.1564 77.6263 28.565ZM71.3617 32.6506C70.9872 33.1272 70.7148 33.7401 70.5786 34.421H77.5923C77.5582 33.7401 77.422 33.1613 77.1497 32.6846C76.8773 32.208 76.5028 31.7994 76.0602 31.527C75.6175 31.2547 75.1068 31.1185 74.5621 31.1185C73.8812 31.1185 73.2683 31.2547 72.7236 31.527C72.1788 31.7654 71.7362 32.1739 71.3617 32.6506ZM102.892 40.7998L102.87 40.7836C102.752 40.6989 102.637 40.6166 102.548 40.3795L95.875 22.1646H91.517L84.8099 40.4136C84.7077 40.6859 84.6056 40.7881 84.4353 40.8902C84.3159 40.9619 84.1797 40.9497 84.0268 40.9361C83.9617 40.9303 83.8936 40.9243 83.8225 40.9243H83.4139V44.6694H85.8653C86.376 44.6694 86.8186 44.5672 87.125 44.4651C87.4655 44.363 87.7038 44.1587 87.9421 43.8863C88.1464 43.6139 88.3507 43.2735 88.4869 42.7968L89.8828 38.8474H97.5092L98.9052 42.7628C99.0754 43.2394 99.2456 43.5799 99.484 43.8523C99.6882 44.1246 99.9606 44.3289 100.301 44.4651C100.642 44.5672 101.05 44.6694 101.595 44.6694H104.216V40.8902H103.57C103.504 40.8902 103.443 40.8918 103.386 40.8932C103.179 40.8985 103.03 40.9024 102.923 40.8221L102.907 40.8106L102.892 40.7998ZM90.8361 35.4427L92.7768 29.757C92.8789 29.4505 92.981 29.076 93.0832 28.7015C93.1853 28.327 93.2875 27.9525 93.3556 27.578C93.4577 27.2375 93.5258 26.897 93.5598 26.6587C93.5939 26.4204 93.6279 26.2501 93.6279 26.2501H93.696C93.696 26.2501 93.7301 26.4204 93.7641 26.6247C93.8322 26.863 93.9003 27.1694 93.9684 27.5099C94.0191 27.7632 94.0886 28.0355 94.163 28.3266L94.1631 28.327C94.1886 28.4269 94.2147 28.5291 94.2408 28.6334C94.2663 28.727 94.2918 28.8227 94.3173 28.9184C94.394 29.2057 94.4706 29.493 94.5472 29.7229L96.4878 35.4427H90.8361ZM116.541 28.1556C116.677 28.1897 116.78 28.1897 116.78 28.1897V28.8706C116.78 28.994 116.783 29.1199 116.787 29.2471V29.2473V29.2475V29.2476V29.2478C116.818 30.3844 116.852 31.6358 114.464 32.3093C114.022 32.4455 113.613 32.6498 113.205 32.9222C112.796 33.1945 112.422 33.535 112.115 33.9776C111.809 34.3862 111.536 34.8969 111.366 35.5097C111.264 35.9183 111.162 36.3268 111.094 36.7694C111.026 37.178 110.992 37.6546 110.992 38.1313V44.6342H106.906V32.4796C106.906 32.2412 106.872 32.0029 106.77 31.9008C106.668 31.7986 106.566 31.6965 106.327 31.6965H105.204V28.2918H108.711C109.426 28.2918 110.004 28.4961 110.379 28.8025C110.719 29.1089 110.958 29.6537 110.958 30.3346V31.2539C110.958 31.4294 110.935 31.605 110.916 31.7549C110.902 31.8667 110.89 31.9642 110.89 32.0369C110.89 32.2072 110.821 32.3434 110.821 32.3434H110.89C111.128 31.322 111.502 30.8113 111.979 30.1984C112.49 29.5856 113.069 29.0408 113.749 28.6663C114.43 28.3259 115.213 28.1216 116.031 28.1216C116.235 28.1216 116.405 28.1216 116.541 28.1556ZM127.879 41.1274C127.743 41.1614 127.607 41.1614 127.368 41.1614C127.096 41.1614 126.789 41.1274 126.415 41.0593C126.04 40.9912 125.7 40.855 125.359 40.6507C125.019 40.4464 124.781 40.14 124.542 39.7315C124.304 39.3229 124.236 38.7782 124.236 38.1313V31.6965H127.981V28.2918H124.236V23.8657H120.15V28.2918H118.108V31.6965H120.15V38.6079C120.15 39.4931 120.252 40.2762 120.491 40.9571C120.729 41.604 121.002 42.1488 121.376 42.6254C121.751 43.068 122.193 43.4425 122.636 43.7149C123.112 43.9873 123.589 44.1916 124.1 44.3618C124.61 44.498 125.087 44.6001 125.564 44.6682L125.742 44.6811C126.144 44.7104 126.501 44.7363 126.858 44.7363C127.066 44.7363 127.232 44.7258 127.38 44.7164C127.497 44.709 127.603 44.7023 127.709 44.7023C127.947 44.6682 127.981 44.6682 127.981 44.6682V41.1014C127.995 41.0976 128 41.0956 128 41.0945C128 41.0933 127.992 41.0933 127.981 41.0933V41.1014C127.964 41.1062 127.933 41.114 127.883 41.1264L127.881 41.1269L127.879 41.1273L127.879 41.1274ZM65.3696 28.1897C65.3696 28.1897 65.1993 28.1897 65.0632 28.1556C64.927 28.1216 64.7227 28.1216 64.5184 28.1216C63.7013 28.1216 62.9182 28.3259 62.2373 28.6663C61.5564 29.0408 60.9435 29.5856 60.4669 30.1984L60.3871 30.3064C59.9448 30.9044 59.5682 31.4134 59.3433 32.3774H59.2752C59.2752 32.3774 59.2412 32.2412 59.2412 32.071C59.2412 31.9983 59.235 31.9008 59.2279 31.789C59.2183 31.639 59.2071 31.4635 59.2071 31.2879V30.3346C59.2071 29.6537 59.0709 29.1089 58.7305 28.8025C58.39 28.462 57.9134 28.2918 57.1984 28.2918H53.4532V31.6965H54.7811C55.0194 31.6965 55.1896 31.7986 55.3258 31.9008C55.428 32.0029 55.5301 32.2412 55.5301 32.4796V44.6342H59.6157V38.1313C59.6157 38.0111 59.6135 37.8908 59.6114 37.7717C59.605 37.4185 59.5988 37.0749 59.6497 36.7694C59.7178 36.3268 59.7859 35.9183 59.8881 35.5097C60.0583 34.8969 60.3307 34.3862 60.6371 33.9776C60.9435 33.535 61.318 33.1945 61.7266 32.9222C62.1351 32.6498 62.6118 32.4455 63.0544 32.3093C65.4864 31.6234 65.4628 30.3377 65.4416 29.1847C65.4396 29.0787 65.4377 28.9738 65.4377 28.8706V28.1897H65.3696ZM6.84338 23.0839C7.6605 14.7425 12.3249 9.15881 19.2364 8.54597L20.7685 8.40979V33.8767C20.7685 40.7881 18.8959 45.044 9.39687 45.044C6.70719 45.044 4.49416 44.4311 2.89396 43.2736L2.45136 42.9671L2.41731 42.9331L2.31517 42.8309L1.97471 42.4905L1.90661 42.4224C1.85554 42.3713 1.81298 42.3117 1.77043 42.2522C1.72787 42.1926 1.68531 42.133 1.63424 42.0819C1.60019 42.0479 1.63424 42.0479 1.63424 42.0479C0.544746 40.686 0 38.8475 0 36.7025V21.1432H1.32782C2.89396 21.1432 5.07295 21.7901 6.84338 23.0839ZM2.75778 24.3185C4.44872 24.7663 6.13294 25.8183 6.80933 27.4078V37.0771C6.80933 38.2687 6.571 39.3582 6.23054 40.0732C6.21351 40.1072 6.19649 40.1327 6.17947 40.1583C6.16244 40.1838 6.14542 40.2094 6.1284 40.2434C6.09435 40.2774 6.0603 40.3455 6.0603 40.3796C6.04328 40.3966 6.03477 40.4136 6.02626 40.4307C6.01774 40.4477 6.00923 40.4647 5.99221 40.4817C5.97519 40.4987 5.96667 40.5158 5.95816 40.5328C5.94965 40.5498 5.94114 40.5668 5.92412 40.5839L5.85602 40.652L5.78793 40.7201C5.77091 40.7201 5.76239 40.7286 5.75388 40.7371C5.74537 40.7456 5.73686 40.7541 5.71984 40.7541C5.70281 40.7541 5.6943 40.7626 5.68579 40.7711C5.67728 40.7796 5.66877 40.7881 5.65174 40.7881C5.63472 40.7881 5.62621 40.7967 5.6177 40.8052C5.60918 40.8137 5.60067 40.8222 5.58365 40.8222C5.44746 40.8903 5.31128 40.8903 5.20914 40.8903H5.107C5.00486 40.8903 4.86867 40.8562 4.73248 40.7881C4.46011 40.686 3.47276 39.8689 3.09824 38.7453C2.85992 37.9623 2.75778 37.1792 2.75778 36.6004V24.3185ZM9.46497 42.15C16.819 42.15 18.0447 39.6987 18.0447 33.8767V11.6783C12.5973 12.972 9.53306 18.2152 9.53306 25.8076V26.9652V37.0771C9.53306 38.2006 9.43092 39.8689 8.78403 41.2648C8.74999 41.3329 8.72445 41.401 8.69892 41.4691C8.67338 41.5372 8.64785 41.6053 8.6138 41.6734C8.6138 41.6904 8.60529 41.6989 8.59678 41.7074C8.58827 41.7159 8.57975 41.7244 8.57975 41.7415C8.51166 41.8776 8.44357 42.0138 8.37547 42.116C8.7159 42.15 9.09037 42.15 9.46484 42.15H9.46497Z" fill="#9F9CA9"/>
</svg>

<svg width="128" height="67" viewBox="0 0 128 67" fill="none" xmlns="http://www.w3.org/2000/svg">
    <path fill-rule="evenodd" clip-rule="evenodd" d="M10.555 0v5.141c0 1.634-1.703 2.485-2.724 2.485V3.234C7.83.784 9.533 0 10.555 0zM0 13.142V8.205c1.021 0 2.724.817 2.724 3.235v7.626C1.702 19.066 0 18.215 0 16.581v-3.439zm27.578 9.022h13.006c.749 0 1.395.102 1.702.442.34.34.579.817.579 1.566v3.439H39.12v-1.362c0-.206-.102-.335-.196-.455l-.043-.056c-.102-.136-.34-.17-.578-.17h-4.256v6.47h7.15v3.404h-7.15v9.192H29.96V25.568h-2.383v-3.404zm22.13 0h-3.404v3.405h3.404v-3.404zm.545 18.862c-.102-.136-.205-.34-.205-.545v-9.976c0-.748-.136-1.327-.476-1.668-.34-.34-.851-.544-1.6-.544H44.26v3.404h1.157c.178 0 .279.078.392.166l.05.038c.103.103.103.34.103.58v9.907c0 .749.238 1.362.579 1.702.34.34.953.545 1.702.545h3.847V41.23h-1.294c-.204 0-.408-.102-.544-.204zm27.373-12.461a6.833 6.833 0 0 1 2.247 1.634c.613.715 1.056 1.532 1.396 2.52.307.919.477 1.906.477 2.996v.442c0 .065-.008.136-.016.212-.009.085-.018.175-.018.265 0 .096-.01.181-.02.255a1.267 1.267 0 0 0-.014.154c-.034.102-.034.17-.034.17H70.476c.069.68.273 1.328.545 1.872.307.545.647.988 1.09 1.362.442.34.953.647 1.498.817.544.17 1.123.273 1.736.273.51-.034 1.022-.068 1.464-.204a6.072 6.072 0 0 0 1.26-.443c.322-.147.594-.318.837-.471l.116-.074c.211-.132.381-.264.51-.364h.001l.056-.043c.016-.013.031-.025.046-.035.17-.137.238-.205.238-.205l1.669 2.792s-.103.068-.307.238c-.204.17-.476.375-.85.613-.375.239-.852.477-1.363.715-.544.239-1.123.443-1.804.613-.647.136-1.396.238-2.213.238-1.328 0-2.52-.238-3.61-.68-1.055-.443-1.974-1.056-2.723-1.84a8.303 8.303 0 0 1-1.736-2.689 8.717 8.717 0 0 1-.613-3.268c0-1.26.204-2.417.613-3.439a8.062 8.062 0 0 1 1.702-2.69 7.22 7.22 0 0 1 2.587-1.736c1.022-.409 2.111-.613 3.337-.613 1.158.034 2.18.204 3.064.613zm-6.264 4.086c-.375.476-.647 1.09-.783 1.77h7.013c-.034-.68-.17-1.26-.442-1.736a3.24 3.24 0 0 0-1.09-1.158 2.83 2.83 0 0 0-1.498-.409c-.68 0-1.294.137-1.838.409-.545.238-.988.647-1.362 1.124zm31.53 8.149l-.022-.016c-.118-.085-.233-.167-.322-.404l-6.673-18.215h-4.358L84.81 40.414c-.102.272-.204.374-.375.476-.12.072-.255.06-.408.046a2.275 2.275 0 0 0-.204-.012h-.41v3.745h2.452c.511 0 .954-.102 1.26-.204.34-.102.579-.306.817-.579.204-.272.409-.613.545-1.09l1.396-3.949h7.626l1.396 3.916c.17.476.34.817.579 1.09.204.272.477.476.817.612.341.102.749.204 1.294.204h2.621V40.89h-.646c-.066 0-.127.002-.184.003-.207.005-.356.01-.463-.07l-.016-.012-.015-.011zm-12.056-5.357l1.94-5.686c.103-.306.205-.681.307-1.056.102-.374.204-.748.273-1.123.102-.34.17-.681.204-.92.034-.238.068-.408.068-.408h.068s.034.17.068.375c.068.238.136.544.204.885.051.253.12.525.195.817l.078.306.076.285c.077.288.154.575.23.805l1.94 5.72h-5.65zm25.705-7.287c.136.034.239.034.239.034v.68c0 .124.003.25.007.377.031 1.137.065 2.389-2.323 3.062-.442.137-.851.34-1.259.613a4.004 4.004 0 0 0-1.09 1.056c-.306.408-.579.919-.749 1.532-.102.408-.204.817-.272 1.26a8.532 8.532 0 0 0-.102 1.361v6.503h-4.086V32.48c0-.239-.034-.477-.136-.58-.102-.101-.204-.203-.443-.203h-1.123v-3.405h3.507c.715 0 1.293.204 1.668.51.34.307.579.852.579 1.533v.919c0 .175-.023.351-.042.5-.014.113-.026.21-.026.283 0 .17-.069.306-.069.306h.069c.238-1.021.612-1.532 1.089-2.145.511-.612 1.09-1.157 1.77-1.532a5.122 5.122 0 0 1 2.282-.544c.204 0 .374 0 .51.034zm11.338 12.971c-.136.034-.272.034-.511.034-.272 0-.579-.034-.953-.102a3.094 3.094 0 0 1-1.056-.408c-.34-.205-.578-.511-.817-.92-.238-.408-.306-.953-.306-1.6v-6.434h3.745v-3.405h-3.745v-4.426h-4.086v4.426h-2.042v3.404h2.042v6.912c0 .885.102 1.668.341 2.35.238.646.511 1.19.885 1.667.375.443.817.818 1.26 1.09.476.272.953.477 1.464.647.51.136.987.238 1.464.306l.178.013c.402.03.759.055 1.116.055.208 0 .374-.01.522-.02a5.22 5.22 0 0 1 .329-.014c.238-.034.272-.034.272-.034v-3.567c.014-.003.019-.005.019-.007h-.019v.007a4.029 4.029 0 0 1-.098.025h-.002l-.002.001zM65.369 28.19s-.17 0-.306-.034c-.136-.034-.34-.034-.545-.034-.817 0-1.6.204-2.28.544a5.88 5.88 0 0 0-1.771 1.532l-.08.108c-.442.598-.819 1.107-1.044 2.071h-.068s-.034-.136-.034-.306c0-.073-.006-.17-.013-.282-.01-.15-.02-.326-.02-.501v-.953c0-.681-.137-1.226-.477-1.533-.341-.34-.818-.51-1.533-.51h-3.745v3.404h1.328c.238 0 .409.103.545.205.102.102.204.34.204.579v12.154h4.086v-6.503c0-.12-.002-.24-.005-.36-.006-.352-.012-.696.039-1.002.068-.442.136-.85.238-1.26.17-.612.443-1.123.75-1.531a4 4 0 0 1 1.089-1.056 5.193 5.193 0 0 1 1.327-.613c2.432-.686 2.409-1.971 2.388-3.124-.002-.106-.004-.211-.004-.314v-.681h-.068zM6.844 23.084c.817-8.341 5.482-13.925 12.393-14.538l1.532-.136v25.467c0 6.911-1.872 11.167-11.371 11.167-2.69 0-4.903-.613-6.503-1.77l-.443-.307-.034-.034-.102-.102-.34-.34-.068-.069c-.051-.05-.094-.11-.137-.17a1.328 1.328 0 0 0-.136-.17c-.034-.034 0-.034 0-.034C.544 40.686 0 38.848 0 36.702V21.144h1.328c1.566 0 3.745.647 5.515 1.94zm-4.085 1.235c1.69.447 3.375 1.5 4.051 3.089v9.67c0 1.19-.238 2.28-.578 2.995-.017.034-.035.06-.052.085a.748.748 0 0 0-.05.085.258.258 0 0 0-.069.137.177.177 0 0 0-.034.05c-.008.018-.017.035-.034.052-.017.017-.025.034-.034.05-.008.018-.017.035-.034.052l-.068.068-.068.068c-.017 0-.026.009-.034.017-.009.009-.017.017-.034.017s-.026.009-.034.017c-.009.009-.017.017-.034.017s-.026.009-.034.017c-.009.009-.017.017-.034.017-.137.068-.273.068-.375.068h-.102a.888.888 0 0 1-.375-.102c-.272-.102-1.26-.92-1.634-2.043a7.717 7.717 0 0 1-.34-2.145V24.318zM9.465 42.15c7.354 0 8.58-2.451 8.58-8.273V11.678c-5.448 1.294-8.512 6.537-8.512 14.13v11.269c0 1.124-.102 2.792-.749 4.188a2.08 2.08 0 0 0-.085.204c-.026.068-.051.136-.085.204 0 .017-.009.026-.017.034-.009.009-.017.017-.017.035-.068.136-.136.272-.205.374.34.034.715.034 1.09.034z" fill="#9F9CA9"/>
</svg>
